icons/microphone/microphone-off.svg

<svg width="14" height="14" viewBox="0 0 14 14" fill="none"
    xmlns="http://www.w3.org/2000/svg">
    <path d="M4.50598 6.62711C4.57011 7.90626 5.59316 8.92875 6.87219 8.99332L7.78723 9.90836C7.69277 9.93008 7.59733 9.95011 7.50012 9.96402V11.0002C7.50004 11.2762 7.27616 11.5001 7.00012 11.5002C6.72403 11.5002 6.5002 11.2762 6.50012 11.0002V9.96402C4.80407 9.72137 3.5002 8.26329 3.50012 6.50015C3.50012 6.26156 3.66718 6.06173 3.89075 6.01187L4.50598 6.62711ZM10.0001 6.00015C10.2762 6.00022 10.5001 6.22405 10.5001 6.50015C10.5001 7.04801 10.373 7.56586 10.1486 8.0275L9.38098 7.25992C9.45743 7.02019 9.50011 6.76521 9.50012 6.50015C9.50012 6.22401 9.72398 6.00015 10.0001 6.00015ZM7.00012 2.49722C8.10463 2.49729 9.00012 3.39269 9.00012 4.49722V6.50015C9.00011 6.61825 8.98657 6.73338 8.96692 6.84586L8.00012 5.87906V4.49722C8.00012 3.94498 7.55235 3.49729 7.00012 3.49722C6.62592 3.49722 6.29951 3.70265 6.12805 4.00699L5.4093 3.28824C5.77463 2.80827 6.35039 2.49722 7.00012 2.49722Z" fill="red"/>
    <path d="M3 3L11 11" stroke="green" stroke-linecap="round" stroke-linejoin="round"/>
</svg>

<svg xmlns="http://www.w3.org/2000/svg" width="14" height="14" fill="none" viewBox="0 0 14 14"><path fill="red" d="M4.506 6.627a2.495 2.495 0 0 0 2.366 2.366l.915.915q-.141.034-.287.056V11a.5.5 0 0 1-1 0V9.964a3.5 3.5 0 0 1-3-3.464.5.5 0 0 1 .39-.488zM10 6a.5.5 0 0 1 .5.5c0 .548-.127 1.066-.351 1.527L9.38 7.26c.076-.24.12-.495.12-.76A.5.5 0 0 1 10 6M7 2.497a2 2 0 0 1 2 2V6.5q-.002.177-.033.346L8 5.879V4.497a1 1 0 0 0-1.872-.49l-.719-.719c.366-.48.941-.79 1.591-.79"/><path stroke="green" stroke-linecap="round" stroke-linejoin="round" d="m3 3 8 8"/></svg>
